img/subtract-6.svg

<svg fill="none" height="32" viewBox="0 0 31 32" width="31" xmlns="http://www.w3.org/2000/svg"><path clip-rule="evenodd" d="m21.8497 24.3921c4.0095-.4787 7.5005-2.9492 7.9393-5.2065.6914-3.5559.6343-8.6775.6343-8.6775 0-6.94181-4.5481-8.97656-4.5481-8.97656-2.2932-1.053228-6.2309-1.49614-10.322-1.52958688h-.1005c-4.091.03344688-8.02619.47635888-10.31954 1.52958688 0 0-4.54826 2.03475-4.54826 8.97656 0 .4208-.002175.8634-.004439 1.3242-.006289 1.2798-.013266 2.6996.023749 4.1816.165165 6.7886 1.2446 13.4792 7.52124 15.1405 2.89405.766 5.37875.9264 7.37985.8164 3.629-.2012 5.6661-1.2951 5.6661-1.2951l-.1196-2.633s-2.5933.8177-5.5058.718c-2.8856-.0989-5.93182-.3111-6.39853-3.8539-.0431-.3112-.06465-.644-.06465-.9934 0 0 2.83268.6923 6.42248.8568 2.1951.1007 4.2536-.1286 6.3444-.3781zm3.2088-4.9397v-8.4053c0-1.7179-.4374-3.08301-1.3158-4.09297-.9061-1.00996-2.0926-1.5277-3.5653-1.5277-1.7043 0-2.9947.65498-3.8478 1.96509l-.8296 1.39046-.8295-1.39046c-.8532-1.31011-2.1437-1.96509-3.8477-1.96509-1.47292 0-2.65942.51774-3.56541 1.5277-.87859 1.00996-1.31598 2.37507-1.31598 4.09297v8.4053h3.33003v-8.1583c0-1.71974.72359-2.59263 2.17096-2.59263 1.6003 0 2.4025 1.03547 2.4025 3.08293v4.4655h3.3103v-4.4655c0-2.04746.8021-3.08293 2.4024-3.08293 1.4473 0 2.1709.87289 2.1709 2.59263v8.1583z" fill="#fff" fill-rule="evenodd"/></svg>

<svg width="31" height="32" viewBox="0 0 31 32" fill="none" xmlns="http://www.w3.org/2000/svg">
<path fill-rule="evenodd" clip-rule="evenodd" d="M21.8497 24.3921C25.8592 23.9134 29.3502 21.4429 29.789 19.1856C30.4804 15.6297 30.4233 10.5081 30.4233 10.5081C30.4233 3.56629 25.8752 1.53154 25.8752 1.53154C23.582 0.478312 19.6443 0.0354 15.5532 0.00195312H15.4527C11.3617 0.0354 7.42651 0.478312 5.13316 1.53154C5.13316 1.53154 0.5849 3.56629 0.5849 10.5081C0.5849 10.9289 0.582725 11.3715 0.580461 11.8323C0.574172 13.1121 0.567195 14.5319 0.60421 16.0139C0.769375 22.8025 1.84881 29.4931 8.12545 31.1544C11.0195 31.9204 13.5042 32.0808 15.5053 31.9708C19.1343 31.7696 21.1714 30.6757 21.1714 30.6757L21.0518 28.0427C21.0518 28.0427 18.4585 28.8604 15.546 28.7607C12.6604 28.6618 9.61418 28.4496 9.14747 24.9068C9.10437 24.5956 9.08282 24.2628 9.08282 23.9134C9.08282 23.9134 11.9155 24.6057 15.5053 24.7702C17.7004 24.8709 19.7589 24.6416 21.8497 24.3921ZM25.0585 19.4524V11.0471C25.0585 9.3292 24.6211 7.96409 23.7427 6.95413C22.8366 5.94417 21.6501 5.42643 20.1774 5.42643C18.4731 5.42643 17.1827 6.08141 16.3296 7.39152L15.5 8.78198L14.6705 7.39152C13.8173 6.08141 12.5268 5.42643 10.8228 5.42643C9.34988 5.42643 8.16338 5.94417 7.25739 6.95413C6.3788 7.96409 5.94141 9.3292 5.94141 11.0471V19.4524H9.27144V11.2941C9.27144 9.57436 9.99503 8.70147 11.4424 8.70147C13.0427 8.70147 13.8449 9.73694 13.8449 11.7844V16.2499H17.1552V11.7844C17.1552 9.73694 17.9573 8.70147 19.5576 8.70147C21.0049 8.70147 21.7285 9.57436 21.7285 11.2941V19.4524H25.0585Z" fill="white"/>
</svg>
